<?xml version="1.0" encoding="UTF-8"?>
<map version="1.10" tiledversion="1.11.2" orientation="orthogonal" renderorder="right-down" width="20" height="15" tilewidth="16" tileheight="16" infinite="0" nextlayerid="5" nextobjectid="15">
 <tileset firstgid="1" source="../tsx/tileset_main.tsx"/>
 <tileset firstgid="641" source="../tsx/tileset_props.tsx"/>
 <tileset firstgid="793" source="../tsx/tileset_props_animated.tsx"/>
 <layer id="1" name="background" width="20" height="15">
  <data encoding="csv">
147,147,147,147,147,147,147,147,147,147,147,147,147,147,147,147,147,147,147,147,
147,147,147,147,147,147,147,147,147,147,147,147,147,147,147,147,147,147,147,147,
147,147,147,147,147,147,147,147,147,147,147,147,147,147,147,147,147,147,147,147,
147,147,147,348,147,147,147,147,147,147,238,147,147,147,147,147,227,147,147,147,
147,147,147,147,9,11,11,11,11,11,11,11,11,11,11,12,147,147,147,147,
147,147,147,147,49,69,69,69,69,69,69,69,69,69,69,92,147,147,147,147,
147,147,147,147,49,69,69,69,69,69,69,69,69,69,69,92,147,147,147,147,
147,147,147,147,49,69,493,69,69,69,69,69,69,69,493,92,147,147,147,147,
147,147,147,147,49,69,69,69,69,69,69,69,69,69,69,92,147,147,147,147,
147,147,147,147,49,69,69,69,69,69,69,69,493,69,69,92,147,147,147,147,
147,147,147,147,129,130,130,130,130,130,130,86,69,69,69,92,147,147,147,147,
147,147,147,307,147,147,147,147,147,147,147,49,69,69,69,92,147,147,147,147,
147,147,147,147,147,147,147,147,147,147,147,129,130,130,641,173,147,147,147,147,
147,147,147,147,147,147,147,147,147,147,307,147,147,147,147,147,350,147,147,147,
147,147,147,147,147,147,147,147,147,147,147,147,147,147,147,147,147,147,147,147
</data>
 </layer>
 <layer id="2" name="colliders" width="20" height="15">
  <data encoding="csv">
0,0,0,0,0,0,0,0,0,0,0,0,0,0,0,0,0,0,0,0,
0,0,0,0,0,0,0,0,0,0,0,0,0,0,0,0,0,0,0,0,
0,0,0,0,0,0,0,0,0,0,0,0,0,0,0,0,0,0,0,0,
0,0,0,0,235,234,230,235,230,233,230,230,234,234,230,230,0,0,0,0,
0,0,0,228,662,660,90,661,0,0,414,700,720,0,661,662,310,0,0,0,
0,0,0,315,662,0,0,0,0,0,454,662,0,0,0,0,310,0,0,0,
0,0,0,314,0,0,0,0,0,0,494,0,0,0,701,0,273,0,0,0,
0,0,0,228,0,0,0,0,0,0,0,0,698,0,0,0,275,0,0,0,
0,0,0,315,0,0,0,0,0,0,0,0,0,0,0,0,310,0,0,0,
0,0,0,315,0,0,701,0,0,0,0,0,0,0,0,0,275,0,0,0,
0,0,0,228,0,0,0,0,0,0,534,0,0,0,0,0,310,0,0,0,
0,0,0,0,355,354,308,355,354,308,309,0,0,0,0,92,274,0,0,0,
0,0,0,0,0,0,0,0,0,0,228,680,0,0,0,0,310,0,0,0,
0,0,0,0,0,0,0,0,0,0,0,308,355,354,308,355,0,0,0,0,
0,0,0,0,0,0,0,0,0,0,0,0,0,0,0,0,0,0,0,0
</data>
 </layer>
 <layer id="3" name="animated" width="20" height="15">
  <data encoding="csv">
0,0,0,0,0,0,0,0,0,0,0,0,0,0,0,0,0,0,0,0,
0,0,0,0,0,0,0,0,0,0,0,0,0,0,0,0,0,0,0,0,
0,0,0,0,0,0,0,0,0,0,0,0,0,0,0,0,0,0,0,0,
0,0,0,0,0,793,811,793,0,0,0,0,0,0,793,0,0,0,0,0,
0,0,0,0,0,0,822,0,0,0,0,0,0,0,0,0,0,0,0,0,
0,0,0,0,0,0,0,0,0,0,0,0,0,0,0,0,0,0,0,0,
0,0,0,0,0,0,0,0,0,0,0,0,0,0,0,0,0,0,0,0,
0,0,0,0,0,0,0,0,0,0,0,0,0,0,0,0,0,0,0,0,
0,0,0,0,0,0,0,0,0,0,0,0,0,0,0,0,0,0,0,0,
0,0,0,0,0,0,0,0,0,0,0,0,0,0,0,0,0,0,0,0,
0,0,0,0,0,0,0,0,0,0,0,0,0,0,0,0,0,0,0,0,
0,0,0,0,0,815,0,815,0,0,0,0,0,0,0,813,0,0,0,0,
0,0,0,0,0,0,0,0,0,0,0,0,0,0,0,0,0,0,0,0,
0,0,0,0,0,0,0,0,0,0,0,0,0,0,0,0,0,0,0,0,
0,0,0,0,0,0,0,0,0,0,0,0,0,0,0,0,0,0,0,0
</data>
 </layer>
 <objectgroup id="4" name="objects">
  <object id="1" name="door" x="224" y="192" width="16" height="16">
   <properties>
    <property name="locked" type="bool" value="false"/>
   </properties>
  </object>
  <object id="2" name="player" x="64" y="112" width="16" height="16"/>
  <object id="3" name="pickup" x="64" y="160" width="16" height="16">
   <properties>
    <property name="pickup_type" value="coin"/>
   </properties>
  </object>
  <object id="4" name="pickup" x="192" y="192" width="16" height="16">
   <properties>
    <property name="pickup_type" value="coin"/>
   </properties>
  </object>
  <object id="5" name="pickup" x="240" y="96" width="16" height="16">
   <properties>
    <property name="pickup_type" value="coin"/>
   </properties>
  </object>
  <object id="6" name="pickup" x="144" y="64" width="16" height="16">
   <properties>
    <property name="pickup_type" value="heart"/>
   </properties>
  </object>
  <object id="7" name="pot" x="144" y="80" width="16" height="16"/>
  <object id="8" name="pot" x="128" y="64" width="16" height="16"/>
  <object id="9" name="pot" x="80" y="160" width="16" height="16"/>
  <object id="10" name="pot" x="144" y="160" width="16" height="16"/>
  <object id="11" name="pot" x="144" y="144" width="16" height="16"/>
  <object id="13" name="enemy" x="112" y="96" width="16" height="16">
   <properties>
    <property name="blocks" type="int" value="2"/>
    <property name="enemy_movement" value="vertical"/>
    <property name="enemy_type" value="rat"/>
   </properties>
  </object>
  <object id="14" name="enemy" x="176" y="112" width="16" height="16">
   <properties>
    <property name="blocks" type="int" value="2"/>
    <property name="enemy_movement" value="vertical"/>
    <property name="enemy_type" value="rat"/>
   </properties>
  </object>
 </objectgroup>
</map>
