<?xml version="1.0" encoding="UTF-8"?>
<map version="1.10" tiledversion="1.11.2" orientation="orthogonal" renderorder="right-down" width="20" height="15" tilewidth="16" tileheight="16" infinite="0" nextlayerid="5" nextobjectid="12">
 <tileset firstgid="1" source="../tsx/tileset_main.tsx"/>
 <tileset firstgid="641" source="../tsx/tileset_props.tsx"/>
 <tileset firstgid="793" source="../tsx/tileset_props_animated.tsx"/>
 <layer id="1" name="background" width="20" height="15">
  <data encoding="csv">
147,147,147,147,147,147,147,147,147,147,147,147,147,147,147,147,147,147,147,147,
147,147,147,147,147,147,147,147,147,147,147,147,147,147,147,147,147,147,147,147,
147,147,147,147,147,147,147,147,147,147,147,147,147,147,147,147,147,147,147,147,
147,147,147,147,147,147,147,147,147,347,347,347,347,347,347,147,147,147,147,147,
147,147,147,147,147,147,147,347,347,347,347,347,347,347,347,347,347,147,147,147,
147,147,147,147,548,347,347,347,347,347,347,347,347,147,147,347,427,147,147,147,
147,147,147,147,147,489,11,11,11,11,11,11,11,11,11,12,347,147,147,147,
147,147,147,147,147,641,69,69,69,69,69,493,69,69,69,92,347,147,147,147,
147,147,147,147,147,49,69,69,69,69,69,69,69,69,69,92,347,147,147,147,
147,147,147,147,147,49,69,493,69,69,493,69,69,69,69,92,347,147,147,147,
147,147,147,147,147,49,69,69,69,69,69,69,69,69,493,572,347,147,147,147,
147,147,147,147,147,129,130,130,610,130,130,130,130,130,130,132,347,147,147,147,
147,147,147,147,507,147,147,147,147,147,147,147,147,147,147,147,550,147,147,147,
147,147,147,147,147,147,147,147,147,147,147,147,147,147,147,147,147,147,147,147,
147,147,147,147,147,147,147,147,147,147,147,147,147,147,147,147,147,147,147,147
</data>
 </layer>
 <layer id="2" name="colliders" width="20" height="15">
  <data encoding="csv">
0,0,0,0,0,0,0,0,0,0,0,0,0,0,0,0,0,0,0,0,
0,0,0,0,0,0,0,0,0,0,0,0,0,0,0,0,0,0,0,0,
0,0,0,0,0,0,0,0,0,0,0,0,0,0,0,0,0,0,0,0,
0,0,0,0,0,0,0,0,0,0,0,0,0,0,0,0,0,0,0,0,
0,0,0,0,0,0,0,0,0,0,0,0,0,0,0,0,0,0,0,0,
0,0,0,0,0,430,434,433,430,430,430,434,430,434,433,430,0,0,0,0,
0,0,0,0,514,660,660,662,0,0,0,0,0,681,661,0,510,0,0,0,
0,0,0,0,428,0,0,0,0,0,0,0,0,0,0,0,510,0,0,0,
0,0,0,0,428,0,0,0,0,0,0,0,0,0,0,0,474,0,0,0,
0,0,0,0,428,0,0,0,0,0,701,0,0,0,0,0,474,0,0,0,
0,0,0,0,512,0,0,661,0,0,0,0,0,661,0,0,472,0,0,0,
0,0,0,0,428,660,662,0,0,0,0,0,661,700,0,0,510,0,0,0,
0,0,0,0,0,553,554,554,508,508,508,508,553,508,508,508,0,0,0,0,
0,0,0,0,0,0,0,0,0,0,0,0,0,0,0,0,0,0,0,0,
0,0,0,0,0,0,0,0,0,0,0,0,0,0,0,0,0,0,0,0
</data>
 </layer>
 <layer id="3" name="animated" width="20" height="15">
  <data encoding="csv">
0,0,0,0,0,0,0,0,0,0,0,0,0,0,0,0,0,0,0,0,
0,0,0,0,0,0,0,0,0,0,0,0,0,0,0,0,0,0,0,0,
0,0,0,0,0,0,0,0,0,0,0,0,0,0,0,0,0,0,0,0,
0,0,0,0,0,0,0,0,0,0,0,0,0,0,0,0,0,0,0,0,
0,0,0,0,0,0,0,0,0,0,0,0,0,0,0,0,0,0,0,0,
0,0,0,0,0,0,0,793,0,0,0,0,0,793,0,0,0,0,0,0,
0,0,0,0,0,0,0,0,0,0,0,0,0,0,0,0,0,0,0,0,
0,0,0,0,0,0,0,0,0,0,0,0,0,0,0,0,0,0,0,0,
0,0,0,0,0,0,0,0,0,0,0,0,0,0,0,0,0,0,0,0,
0,0,0,0,0,0,0,0,0,0,0,0,0,0,0,0,0,0,0,0,
0,0,0,0,0,0,0,0,0,0,0,0,0,0,0,0,0,0,0,0,
0,0,0,0,0,0,0,0,0,0,0,0,0,0,0,0,0,0,0,0,
0,0,0,0,0,0,0,815,0,0,0,0,0,815,0,0,0,0,0,0,
0,0,0,0,0,0,0,0,0,0,0,0,0,0,0,0,0,0,0,0,
0,0,0,0,0,0,0,0,0,0,0,0,0,0,0,0,0,0,0,0
</data>
 </layer>
 <objectgroup id="4" name="objects">
  <object id="1" name="player" x="240" y="128" width="16" height="16"/>
  <object id="2" name="enemy" x="144" y="112" width="16" height="16">
   <properties>
    <property name="blocks" type="int" value="3"/>
    <property name="enemy_movement" value="vertical"/>
    <property name="enemy_type" value="bat"/>
   </properties>
  </object>
  <object id="3" name="door" x="80" y="112" width="16" height="16">
   <properties>
    <property name="locked" type="bool" value="false"/>
   </properties>
  </object>
  <object id="4" name="pot" x="192" y="96" width="16" height="16"/>
  <object id="5" name="pot" x="240" y="112" width="16" height="16"/>
  <object id="6" name="pot" x="160" y="160" width="16" height="16"/>
  <object id="7" name="pot" x="176" y="144" width="16" height="16"/>
  <object id="8" name="pot" x="80" y="160" width="16" height="16"/>
  <object id="9" name="pickup" x="128" y="96" width="16" height="16">
   <properties>
    <property name="pickup_type" value="coin"/>
   </properties>
  </object>
  <object id="10" name="pickup" x="112" y="176" width="16" height="16">
   <properties>
    <property name="pickup_type" value="coin"/>
   </properties>
  </object>
  <object id="11" name="pickup" x="224" y="176" width="16" height="16">
   <properties>
    <property name="pickup_type" value="coin"/>
   </properties>
  </object>
 </objectgroup>
</map>
