<?xml version="1.0" encoding="UTF-8"?>
<map version="1.10" tiledversion="1.11.2" orientation="orthogonal" renderorder="right-down" width="20" height="15" tilewidth="16" tileheight="16" infinite="0" nextlayerid="5" nextobjectid="18">
 <tileset firstgid="1" source="../tsx/tileset_main.tsx"/>
 <tileset firstgid="641" source="../tsx/tileset_props.tsx"/>
 <layer id="1" name="background" width="20" height="15">
  <data encoding="csv">
147,147,147,147,147,147,147,147,147,147,147,147,147,147,147,147,147,147,147,147,
147,147,147,147,147,147,147,147,147,147,147,147,147,147,147,147,147,147,147,147,
147,147,147,147,147,147,147,147,147,147,147,147,147,147,147,147,147,147,147,147,
147,147,147,147,147,148,147,147,147,147,147,147,147,147,27,147,147,147,147,147,
147,147,147,147,147,147,169,171,171,171,171,171,171,172,147,147,147,147,147,147,
147,147,147,147,147,147,209,250,250,250,250,250,250,252,147,147,147,147,147,147,
147,147,148,147,147,147,209,250,250,250,213,250,250,252,147,147,147,27,147,147,
147,147,147,169,171,171,206,250,250,250,250,250,250,207,171,171,173,147,147,147,
147,147,147,209,250,250,250,250,250,250,250,250,250,250,250,250,252,147,147,147,
147,147,117,209,250,250,250,250,250,250,250,250,250,250,250,250,252,147,147,147,
147,147,147,209,250,213,250,250,250,250,250,250,250,250,250,250,252,147,147,147,
147,147,147,209,250,250,250,250,250,250,250,250,250,250,250,213,252,147,147,147,
147,147,147,173,290,290,290,290,290,290,290,290,290,290,290,290,292,147,147,147,
147,147,107,147,147,147,147,147,147,147,147,147,147,147,147,147,147,150,147,147,
147,147,147,147,147,147,147,147,147,147,147,147,147,147,147,147,147,147,147,147
</data>
 </layer>
 <layer id="2" name="colliders" width="20" height="15">
  <data encoding="csv">
0,0,0,0,0,0,0,0,0,0,0,0,0,0,0,0,0,0,0,0,
0,0,0,0,0,0,0,0,0,0,0,0,0,0,0,0,0,0,0,0,
0,0,0,0,0,0,0,0,0,0,0,0,0,0,0,0,0,0,0,0,
0,0,0,0,0,0,32,30,33,30,30,30,30,32,0,0,0,0,0,0,
0,0,0,0,0,113,660,0,0,0,0,0,661,662,110,0,0,0,0,0,
0,0,0,0,0,114,0,0,0,0,0,0,0,0,73,0,0,0,0,0,
0,0,0,33,35,68,0,0,0,0,0,0,0,0,29,35,30,0,0,0,
0,0,114,662,660,0,0,0,0,717,699,0,0,0,0,0,0,110,0,0,
0,0,77,660,0,0,701,0,0,651,652,0,0,0,0,0,0,73,0,0,
0,0,118,0,0,0,0,0,0,0,0,0,0,0,0,0,0,74,0,0,
0,0,157,0,0,0,0,0,0,0,0,0,0,0,701,0,0,74,0,0,
0,0,114,660,661,0,0,0,698,0,0,0,0,0,0,0,0,73,0,0,
0,0,28,0,660,661,0,0,0,0,0,0,0,0,0,0,0,110,0,0,
0,0,0,153,108,108,108,108,153,153,108,108,152,108,108,152,154,0,0,0,
0,0,0,0,0,0,0,0,0,0,0,0,0,0,0,0,0,0,0,0
</data>
 </layer>
 <layer id="3" name="animated" width="20" height="15">
  <data encoding="csv">
0,0,0,0,0,0,0,0,0,0,0,0,0,0,0,0,0,0,0,0,
0,0,0,0,0,0,0,0,0,0,0,0,0,0,0,0,0,0,0,0,
0,0,0,0,0,0,0,0,0,0,0,0,0,0,0,0,0,0,0,0,
0,0,0,0,0,0,0,0,0,0,0,0,0,0,0,0,0,0,0,0,
0,0,0,0,0,0,0,0,0,0,0,0,0,0,0,0,0,0,0,0,
0,0,0,0,0,0,0,0,0,0,0,0,0,0,0,0,0,0,0,0,
0,0,0,0,0,0,0,0,0,0,0,0,0,0,0,0,0,0,0,0,
0,0,0,0,0,0,0,0,0,0,0,0,0,0,0,0,0,0,0,0,
0,0,0,0,0,0,0,0,0,0,0,0,0,0,0,0,0,0,0,0,
0,0,0,0,0,0,0,0,0,0,0,0,0,0,0,0,0,0,0,0,
0,0,0,0,0,0,0,0,0,0,0,0,0,0,0,0,0,0,0,0,
0,0,0,0,0,0,0,0,0,0,0,0,0,0,0,0,0,0,0,0,
0,0,0,0,0,0,0,0,0,0,0,0,0,0,0,0,0,0,0,0,
0,0,0,0,0,0,0,0,0,0,0,0,0,0,0,0,0,0,0,0,
0,0,0,0,0,0,0,0,0,0,0,0,0,0,0,0,0,0,0,0
</data>
 </layer>
 <objectgroup id="4" name="objects">
  <object id="1" name="door" x="48" y="144" width="8" height="16">
   <properties>
    <property name="locked" type="bool" value="true"/>
   </properties>
  </object>
  <object id="2" name="pickup" x="256" y="192" width="16" height="16">
   <properties>
    <property name="pickup_type" value="key"/>
   </properties>
  </object>
  <object id="3" name="player" x="160" y="64" width="16" height="16"/>
  <object id="4" name="pickup" x="128" y="112" width="16" height="16">
   <properties>
    <property name="pickup_type" value="coin"/>
   </properties>
  </object>
  <object id="5" name="pot" x="256" y="176" width="16" height="16"/>
  <object id="6" name="pot" x="240" y="192" width="16" height="16"/>
  <object id="7" name="pot" x="224" y="176" width="16" height="16"/>
  <object id="8" name="pot" x="112" y="64" width="16" height="16"/>
  <object id="9" name="pot" x="80" y="112" width="16" height="16"/>
  <object id="10" name="pot" x="64" y="128" width="16" height="16"/>
  <object id="11" name="pot" x="208" y="112" width="16" height="16"/>
  <object id="12" name="pot" x="224" y="112" width="16" height="16"/>
  <object id="13" name="pickup" x="256" y="128" width="16" height="16">
   <properties>
    <property name="pickup_type" value="coin"/>
   </properties>
  </object>
  <object id="14" name="pickup" x="96" y="80" width="16" height="16">
   <properties>
    <property name="pickup_type" value="coin"/>
   </properties>
  </object>
  <object id="15" name="pickup" x="160" y="192" width="16" height="16">
   <properties>
    <property name="pickup_type" value="coin"/>
   </properties>
  </object>
  <object id="16" name="enemy" x="112" y="128" width="16" height="16">
   <properties>
    <property name="blocks" type="int" value="2"/>
    <property name="enemy_movement" value="vertical"/>
    <property name="enemy_type" value="slime"/>
   </properties>
  </object>
  <object id="17" name="enemy" x="192" y="144" width="16" height="16">
   <properties>
    <property name="blocks" type="int" value="3"/>
    <property name="enemy_movement" value="horizontal"/>
    <property name="enemy_type" value="slime"/>
   </properties>
  </object>
 </objectgroup>
</map>
