<?xml version="1.0" encoding="UTF-8"?>
<map version="1.10" tiledversion="1.11.2" orientation="orthogonal" renderorder="right-down" width="20" height="15" tilewidth="16" tileheight="16" infinite="0" nextlayerid="5" nextobjectid="12">
 <tileset firstgid="1" source="../tsx/tileset_main.tsx"/>
 <tileset firstgid="641" source="../tsx/tileset_props.tsx"/>
 <tileset firstgid="793" source="../tsx/tileset_props_animated.tsx"/>
 <layer id="1" name="background" width="20" height="15">
  <data encoding="csv">
147,147,147,147,147,147,147,147,147,147,147,147,147,147,147,147,147,147,147,147,
147,147,147,147,147,147,147,147,147,147,147,147,147,147,147,147,147,147,147,147,
147,147,147,147,147,147,147,147,147,147,147,147,147,147,147,147,147,147,147,147,
147,147,147,147,147,548,147,147,147,147,147,147,147,147,147,427,147,147,147,147,
147,147,147,147,147,147,9,11,491,11,11,11,491,11,492,147,147,147,147,147,
147,147,147,147,147,517,529,69,69,69,69,69,69,69,92,147,147,147,147,147,
147,147,147,147,147,147,49,69,493,69,69,69,69,69,92,147,147,147,147,147,
147,147,147,147,147,147,49,69,69,69,69,69,69,493,572,147,147,147,147,147,
147,147,147,147,147,147,49,69,69,69,69,69,493,69,92,147,147,427,147,147,
147,147,147,147,147,147,129,610,130,130,610,130,86,69,47,11,12,147,147,147,
147,147,147,147,147,507,347,347,347,347,347,347,49,69,69,69,92,347,147,147,
147,147,147,147,147,147,147,147,147,147,147,347,129,610,130,610,132,347,147,147,
147,147,147,147,147,147,147,147,147,147,147,507,347,347,347,347,347,550,147,147,
147,147,147,147,147,147,147,147,147,147,147,147,147,147,147,147,147,147,147,147,
147,147,147,147,147,147,147,147,147,147,147,147,147,147,147,147,147,147,147,147
</data>
 </layer>
 <layer id="2" name="colliders" width="20" height="15">
  <data encoding="csv">
0,0,0,0,0,0,0,0,0,0,0,0,0,0,0,0,0,0,0,0,
0,0,0,0,0,0,0,0,0,0,0,0,0,0,0,0,0,0,0,0,
0,0,0,0,0,0,0,0,0,0,0,0,0,0,0,0,0,0,0,0,
0,0,0,0,0,0,430,430,430,434,434,430,430,430,433,0,0,0,0,0,
0,0,0,0,0,428,0,651,652,0,0,0,0,0,0,474,0,0,0,0,
0,0,0,0,0,118,0,0,0,0,0,661,0,0,0,510,0,0,0,0,
0,0,0,0,0,512,0,0,0,0,0,660,0,0,0,473,0,0,0,0,
0,0,0,0,0,428,0,0,0,0,0,0,0,0,0,510,0,0,0,0,
0,0,0,0,0,513,0,699,0,0,0,0,0,0,0,429,656,0,0,0,
0,0,0,0,0,428,679,0,0,0,0,0,0,0,0,699,675,510,0,0,
0,0,0,0,0,0,508,508,508,508,508,509,0,0,0,0,0,510,0,0,
0,0,0,0,0,0,0,0,0,0,0,428,0,0,0,0,701,510,0,0,
0,0,0,0,0,0,0,0,0,0,0,0,554,508,508,508,553,0,0,0,
0,0,0,0,0,0,0,0,0,0,0,0,0,0,0,0,0,0,0,0,
0,0,0,0,0,0,0,0,0,0,0,0,0,0,0,0,0,0,0,0
</data>
 </layer>
 <layer id="3" name="animated" width="20" height="15">
  <data encoding="csv">
0,0,0,0,0,0,0,0,0,0,0,0,0,0,0,0,0,0,0,0,
0,0,0,0,0,0,0,0,0,0,0,0,0,0,0,0,0,0,0,0,
0,0,0,0,0,0,0,0,0,0,0,0,0,0,0,0,0,0,0,0,
0,0,0,0,0,0,793,0,0,793,0,0,0,0,0,0,0,0,0,0,
0,0,0,0,0,0,0,0,0,0,0,0,0,0,0,0,0,0,0,0,
0,0,0,0,0,0,0,0,0,0,0,0,0,0,0,0,0,0,0,0,
0,0,0,0,0,0,0,0,0,0,0,0,0,0,0,0,0,0,0,0,
0,0,0,0,0,0,0,0,0,0,0,0,0,0,0,0,0,0,0,0,
0,0,0,0,0,0,0,0,0,0,0,0,0,0,0,0,0,0,0,0,
0,0,0,0,0,0,0,0,0,0,0,0,0,0,0,0,0,0,0,0,
0,0,0,0,0,0,0,0,0,0,0,0,0,0,0,0,0,0,0,0,
0,0,0,0,0,0,0,0,0,0,0,0,0,0,0,0,0,0,0,0,
0,0,0,0,0,0,0,0,0,0,0,0,0,0,815,0,0,0,0,0,
0,0,0,0,0,0,0,0,0,0,0,0,0,0,0,0,0,0,0,0,
0,0,0,0,0,0,0,0,0,0,0,0,0,0,0,0,0,0,0,0
</data>
 </layer>
 <objectgroup id="4" name="objects">
  <object id="1" name="enemy" x="128" y="112" width="16" height="16">
   <properties>
    <property name="blocks" type="int" value="5"/>
    <property name="enemy_movement" value="horizontal"/>
    <property name="enemy_type" value="rat"/>
   </properties>
  </object>
  <object id="2" name="pickup" x="96" y="64" width="16" height="16">
   <properties>
    <property name="pickup_type" value="key"/>
   </properties>
  </object>
  <object id="3" name="pickup" x="160" y="96" width="16" height="16">
   <properties>
    <property name="pickup_type" value="coin"/>
   </properties>
  </object>
  <object id="4" name="pickup" x="112" y="144" width="16" height="16">
   <properties>
    <property name="pickup_type" value="heart"/>
   </properties>
  </object>
  <object id="5" name="pickup" x="224" y="160" width="16" height="16">
   <properties>
    <property name="pickup_type" value="coin"/>
   </properties>
  </object>
  <object id="6" name="player" x="207.75" y="175.75" width="16" height="16"/>
  <object id="7" name="door" x="96" y="80" width="8" height="16">
   <properties>
    <property name="locked" type="bool" value="true"/>
   </properties>
  </object>
  <object id="8" name="pot" x="224" y="64" width="16" height="16"/>
  <object id="9" name="pot" x="208" y="64" width="16" height="16"/>
  <object id="10" name="pot" x="224" y="80" width="16" height="16"/>
  <object id="11" name="pot" x="144" y="64" width="16" height="16"/>
 </objectgroup>
</map>
