<?xml version="1.0" encoding="UTF-8"?>
<map version="1.10" tiledversion="1.11.2" orientation="orthogonal" renderorder="right-down" width="20" height="15" tilewidth="16" tileheight="16" infinite="0" nextlayerid="5" nextobjectid="17">
 <tileset firstgid="1" source="../tsx/tileset_main.tsx"/>
 <tileset firstgid="641" source="../tsx/tileset_props_animated.tsx"/>
 <tileset firstgid="729" source="../tsx/tileset_props.tsx"/>
 <layer id="1" name="background" width="20" height="15" visible="0">
  <data encoding="csv">
147,147,147,147,147,147,147,147,147,147,147,147,147,147,147,147,147,147,147,147,
147,147,147,147,147,147,147,147,147,147,147,147,147,147,147,147,147,147,147,147,
147,147,147,147,147,147,147,147,147,147,147,147,147,147,147,147,147,147,147,147,
147,147,147,147,147,147,147,147,148,147,147,147,147,147,147,147,147,27,147,147,
147,147,147,147,147,147,147,147,147,169,173,171,171,171,171,171,172,147,147,147,
147,147,148,147,147,147,147,147,147,209,250,250,250,250,250,250,252,147,147,147,
147,147,147,169,171,171,171,171,171,206,250,250,250,250,250,213,252,147,147,147,
147,147,147,209,250,250,250,250,250,250,250,250,250,250,250,250,252,147,147,147,
147,147,147,209,250,250,250,250,250,250,250,250,250,250,250,250,252,147,147,147,
147,147,147,209,250,250,250,250,250,250,250,250,250,250,250,250,252,147,147,147,
147,147,147,209,250,250,213,250,250,250,250,250,250,250,250,250,252,147,147,147,
147,147,147,289,290,290,290,290,290,290,290,290,290,290,290,173,292,147,147,147,
147,147,107,147,147,159,147,147,147,147,147,147,147,147,147,147,147,150,147,147,
147,147,147,147,147,147,147,147,147,147,147,147,147,147,147,147,147,147,147,147,
147,147,147,147,147,147,147,147,147,147,147,147,147,147,147,147,147,147,147,147
</data>
 </layer>
 <layer id="2" name="colliders" width="20" height="15">
  <data encoding="csv">
0,0,0,0,0,0,0,0,0,0,0,0,0,0,0,0,0,0,0,0,
0,0,0,0,0,0,0,0,0,0,0,0,0,0,0,0,0,0,0,0,
0,0,0,0,0,0,0,0,0,0,0,0,0,0,0,0,0,0,0,0,
0,0,0,0,0,0,0,0,0,30,30,33,30,30,32,30,30,0,0,0,
0,0,0,0,0,0,0,0,28,748,0,0,0,0,0,0,748,110,0,0,
0,0,0,30,35,33,30,30,68,0,0,0,0,0,0,0,0,110,0,0,
0,0,28,750,749,0,0,768,414,0,0,0,0,0,0,0,0,75,0,0,
0,0,28,0,0,0,0,0,454,0,0,0,0,0,0,0,0,72,0,0,
0,0,114,0,0,0,0,0,494,789,0,0,787,0,0,0,0,110,0,0,
0,0,28,0,808,0,0,0,0,0,0,0,0,0,0,0,0,73,0,0,
0,0,114,805,0,0,0,0,0,0,0,0,0,0,0,0,0,74,0,0,
0,0,28,0,0,0,0,0,0,0,0,0,0,0,290,0,749,110,0,0,
0,0,0,153,158,119,160,154,153,152,154,108,108,153,108,154,153,0,0,0,
0,0,0,0,0,0,0,0,0,0,0,0,0,0,0,0,0,0,0,0,
0,0,0,0,0,0,0,0,0,0,0,0,0,0,0,0,0,0,0,0
</data>
 </layer>
 <layer id="3" name="animated" width="20" height="15">
  <data encoding="csv">
0,0,0,0,0,0,0,0,0,0,0,0,0,0,0,0,0,0,0,0,
0,0,0,0,0,0,0,0,0,0,0,0,0,0,0,0,0,0,0,0,
0,0,0,0,0,0,0,0,0,0,0,0,0,0,0,0,0,0,0,0,
0,0,0,0,0,0,0,0,0,641,0,0,0,0,0,0,641,0,0,0,
0,0,0,0,0,0,0,0,0,0,0,0,0,0,0,0,0,0,0,0,
0,0,0,641,0,0,0,0,0,0,0,0,0,0,0,0,0,0,0,0,
0,0,0,0,0,0,0,0,0,0,0,0,0,0,0,0,0,0,0,0,
0,0,0,0,0,0,0,0,0,0,0,0,0,0,0,0,0,0,0,0,
0,0,0,0,0,0,0,0,0,0,0,0,0,0,0,0,0,0,0,0,
0,0,0,0,0,0,0,0,0,0,0,0,0,0,0,0,0,0,0,0,
0,0,0,0,0,0,0,0,0,0,0,0,0,0,0,0,0,0,0,0,
0,0,0,0,0,0,0,0,0,0,0,0,0,0,661,0,0,0,0,0,
0,0,0,0,663,0,663,0,0,0,0,0,0,0,0,0,0,0,0,0,
0,0,0,0,0,0,0,0,0,0,0,0,0,0,0,0,0,0,0,0,
0,0,0,0,0,0,0,0,0,0,0,0,0,0,0,0,0,0,0,0
</data>
 </layer>
 <objectgroup id="4" name="objects">
  <object id="1" name="player" x="208" y="64" width="16" height="16"/>
  <object id="2" name="pot" x="144" y="80" width="16" height="16"/>
  <object id="3" name="pot" x="144" y="96" width="16" height="16"/>
  <object id="4" name="pot" x="112" y="128" width="16" height="16"/>
  <object id="5" name="pot" x="48" y="176" width="16" height="16"/>
  <object id="6" name="pot" x="256" y="144" width="16" height="16"/>
  <object id="7" name="pot" x="240" y="144" width="16" height="16"/>
  <object id="8" name="pickup" x="64" y="176" width="16" height="16">
   <properties>
    <property name="pickup_type" value="coin"/>
   </properties>
  </object>
  <object id="9" name="pickup" x="96" y="96" width="16" height="16">
   <properties>
    <property name="pickup_type" value="coin"/>
   </properties>
  </object>
  <object id="10" name="pickup" x="48" y="112" width="16" height="16">
   <properties>
    <property name="pickup_type" value="coin"/>
   </properties>
  </object>
  <object id="11" name="pickup" x="256" y="160" width="16" height="16">
   <properties>
    <property name="pickup_type" value="key"/>
   </properties>
  </object>
  <object id="12" name="enemy" x="176" y="96" width="16" height="16">
   <properties>
    <property name="blocks" type="int" value="4"/>
    <property name="enemy_movement" value="horizontal"/>
    <property name="enemy_type" value="slime"/>
   </properties>
  </object>
  <object id="14" name="enemy" x="128" y="160" width="16" height="16">
   <properties>
    <property name="blocks" type="int" value="3"/>
    <property name="enemy_movement" value="horizontal"/>
    <property name="enemy_type" value="slime"/>
   </properties>
  </object>
  <object id="15" name="door" x="80" y="184" width="16" height="8">
   <properties>
    <property name="locked" type="bool" value="true"/>
   </properties>
  </object>
  <object id="16" name="info" x="24" y="24">
   <properties>
    <property name="music" value="dungeon"/>
   </properties>
   <point/>
  </object>
 </objectgroup>
</map>
