<?xml version="1.0" encoding="UTF-8"?>
<map version="1.10" tiledversion="1.11.2" orientation="orthogonal" renderorder="right-down" width="20" height="15" tilewidth="16" tileheight="16" infinite="0" nextlayerid="5" nextobjectid="17">
 <tileset firstgid="1" source="../tsx/tileset_main.tsx"/>
 <tileset firstgid="641" source="../tsx/tileset_props.tsx"/>
 <tileset firstgid="793" source="../tsx/tileset_props_animated.tsx"/>
 <layer id="1" name="background" width="20" height="15">
  <data encoding="csv">
147,147,147,147,147,147,147,147,147,147,147,147,147,147,147,147,147,147,147,147,
147,147,147,147,147,147,147,147,147,147,147,147,147,147,147,147,147,147,147,147,
147,147,348,147,147,147,147,147,147,227,147,147,147,147,147,147,147,147,147,147,
147,147,147,9,11,11,173,11,12,147,348,147,147,238,147,147,227,147,147,147,
147,147,147,49,90,90,90,90,92,147,147,9,11,11,11,12,147,147,147,147,
147,147,147,49,90,90,90,90,92,147,147,49,90,493,90,92,147,147,147,147,
147,147,147,49,90,90,90,493,47,11,11,46,90,90,90,92,147,147,147,147,
147,147,147,129,130,130,86,90,90,90,90,87,130,130,130,132,147,147,147,147,
147,147,307,147,147,147,49,90,90,90,90,92,147,147,147,147,350,147,147,147,
147,147,147,147,147,147,49,90,90,90,493,92,147,147,147,147,147,147,147,147,
147,147,147,147,147,147,49,90,90,90,90,92,147,147,147,147,147,147,147,147,
147,147,147,147,147,147,129,130,130,130,130,132,147,147,147,147,147,147,147,147,
147,147,147,147,147,307,147,147,147,147,147,147,350,147,147,147,147,147,147,147,
147,147,147,147,147,147,147,147,147,147,147,147,147,147,147,147,147,147,147,147,
147,147,147,147,147,147,147,147,147,147,147,147,147,147,147,147,147,147,147,147
</data>
 </layer>
 <layer id="2" name="colliders" width="20" height="15">
  <data encoding="csv">
0,0,0,0,0,0,0,0,0,0,0,0,0,0,0,0,0,0,0,0,
0,0,0,0,0,0,0,0,0,0,0,0,0,0,0,0,0,0,0,0,
0,0,0,233,234,230,230,230,235,0,0,0,0,0,0,0,0,0,0,0,
0,0,228,660,660,662,0,0,661,310,0,234,237,278,239,235,0,0,0,0,
0,0,315,660,0,0,0,0,0,310,228,679,682,0,0,698,310,0,0,0,
0,0,314,0,0,0,0,0,0,229,268,0,0,0,0,0,310,0,0,0,
0,0,228,0,0,0,0,0,0,700,701,0,0,0,0,0,275,0,0,0,
0,0,315,0,0,0,0,0,0,0,0,0,0,0,0,661,310,0,0,0,
0,0,0,355,308,309,0,0,0,0,0,661,270,355,355,353,0,0,0,0,
0,0,0,0,0,228,0,651,652,0,0,662,310,0,0,0,0,0,0,0,
0,0,0,0,0,228,0,0,699,698,0,0,310,0,0,0,0,0,0,0,
0,0,0,0,0,228,0,0,0,0,0,0,310,0,0,0,0,0,0,0,
0,0,0,0,0,0,355,353,354,308,308,308,0,0,0,0,0,0,0,0,
0,0,0,0,0,0,0,0,0,0,0,0,0,0,0,0,0,0,0,0,
0,0,0,0,0,0,0,0,0,0,0,0,0,0,0,0,0,0,0,0
</data>
 </layer>
 <layer id="3" name="animated" width="20" height="15">
  <data encoding="csv">
0,0,0,0,0,0,0,0,0,0,0,0,0,0,0,0,0,0,0,0,
0,0,0,0,0,0,0,0,0,0,0,0,0,0,0,0,0,0,0,0,
0,0,0,0,0,0,793,0,0,0,0,0,0,0,0,0,0,0,0,0,
0,0,0,0,0,0,0,0,0,0,0,0,0,0,0,793,0,0,0,0,
0,0,0,0,0,0,0,0,0,0,0,0,0,0,0,0,0,0,0,0,
0,0,0,0,0,0,0,0,0,0,0,0,0,0,0,0,0,0,0,0,
0,0,0,0,0,0,0,0,0,0,0,0,0,0,0,0,0,0,0,0,
0,0,0,0,0,0,0,0,0,0,0,0,0,0,0,0,0,0,0,0,
0,0,0,0,815,0,0,0,0,0,0,0,0,0,815,0,0,0,0,0,
0,0,0,0,0,0,0,0,0,0,0,0,0,0,0,0,0,0,0,0,
0,0,0,0,0,0,0,0,0,0,0,0,0,0,0,0,0,0,0,0,
0,0,0,0,0,0,0,0,0,0,0,0,0,0,0,0,0,0,0,0,
0,0,0,0,0,0,0,0,0,0,0,0,0,0,0,0,0,0,0,0,
0,0,0,0,0,0,0,0,0,0,0,0,0,0,0,0,0,0,0,0,
0,0,0,0,0,0,0,0,0,0,0,0,0,0,0,0,0,0,0,0
</data>
 </layer>
 <objectgroup id="4" name="objects">
  <object id="1" name="player" x="176" y="176" width="16" height="16"/>
  <object id="2" name="door" x="208" y="64" width="16" height="8">
   <properties>
    <property name="locked" type="bool" value="true"/>
   </properties>
  </object>
  <object id="3" name="info" x="24" y="24">
   <properties>
    <property name="music" value="fight"/>
   </properties>
   <point/>
  </object>
  <object id="4" name="enemy" x="64" y="96" width="16" height="16">
   <properties>
    <property name="blocks" type="int" value="4"/>
    <property name="enemy_movement" value="horizontal"/>
    <property name="enemy_type" value="rat"/>
   </properties>
  </object>
  <object id="6" name="enemy" x="128" y="112" width="16" height="16">
   <properties>
    <property name="blocks" type="int" value="3"/>
    <property name="enemy_movement" value="horizontal"/>
    <property name="enemy_type" value="bat"/>
   </properties>
  </object>
  <object id="7" name="pickup" x="112" y="48" width="16" height="16">
   <properties>
    <property name="pickup_type" value="key"/>
   </properties>
  </object>
  <object id="8" name="pickup" x="240" y="96" width="16" height="16">
   <properties>
    <property name="pickup_type" value="heart"/>
   </properties>
  </object>
  <object id="9" name="pot" x="112" y="64" width="16" height="16"/>
  <object id="10" name="pot" x="128" y="64" width="16" height="16"/>
  <object id="11" name="pot" x="48" y="112" width="16" height="16"/>
  <object id="12" name="pot" x="64" y="112" width="16" height="16"/>
  <object id="13" name="pot" x="224" y="112" width="16" height="16"/>
  <object id="14" name="pot" x="208" y="112" width="16" height="16"/>
  <object id="15" name="pot" x="96" y="176" width="16" height="16"/>
  <object id="16" name="pickup" x="96" y="160" width="16" height="16">
   <properties>
    <property name="pickup_type" value="coin"/>
   </properties>
  </object>
 </objectgroup>
</map>
