<?xml version="1.0" encoding="UTF-8"?>
<map version="1.10" tiledversion="1.11.2" orientation="orthogonal" renderorder="right-down" width="20" height="15" tilewidth="16" tileheight="16" infinite="0" nextlayerid="5" nextobjectid="17">
 <tileset firstgid="1" source="../tsx/tileset_main.tsx"/>
 <tileset firstgid="641" source="../tsx/tileset_props_animated.tsx"/>
 <tileset firstgid="729" source="../tsx/tileset_props.tsx"/>
 <layer id="1" name="background" width="20" height="15">
  <data encoding="csv">
147,147,147,147,147,147,147,147,147,147,147,147,147,147,147,147,147,147,147,147,
147,147,147,147,147,147,147,147,147,147,147,147,147,147,147,147,147,147,147,147,
147,147,147,147,148,147,147,147,147,147,38,147,147,147,147,147,27,147,147,147,
147,147,147,148,147,169,171,171,171,171,171,171,171,171,171,172,147,27,147,147,
147,147,148,147,173,206,250,250,250,250,250,250,250,250,250,207,173,147,27,147,
147,147,147,169,206,250,250,250,250,250,250,250,250,250,250,250,207,172,147,147,
147,147,147,209,250,250,250,250,250,250,250,250,250,250,250,250,250,252,147,147,
147,147,147,209,250,250,250,250,250,250,250,250,250,250,250,250,250,252,147,147,
147,147,147,209,250,250,250,250,250,250,250,250,250,250,250,250,250,252,147,147,
147,147,147,209,250,250,250,250,250,250,250,250,250,250,250,250,250,252,147,147,
147,147,147,289,246,250,250,250,250,250,250,250,250,250,250,250,247,292,147,147,
147,147,107,147,173,250,250,250,250,250,250,250,250,250,250,247,173,147,150,147,
147,147,147,107,147,289,290,290,290,290,290,290,290,290,290,292,147,150,147,147,
147,147,147,147,107,147,147,147,147,147,147,147,147,147,147,147,150,147,147,147,
147,147,147,147,147,147,147,147,147,147,147,147,147,147,147,147,147,147,147,147
</data>
 </layer>
 <layer id="2" name="colliders" width="20" height="15">
  <data encoding="csv">
0,0,0,0,0,0,0,0,0,0,0,0,0,0,0,0,0,0,0,0,
0,0,0,0,0,0,0,0,0,0,0,0,0,0,0,0,0,0,0,0,
0,0,0,0,0,30,35,33,34,32,78,32,33,34,35,33,0,0,0,0,
0,0,0,0,68,645,171,0,0,0,0,0,0,0,0,786,29,0,0,0,
0,0,0,68,0,206,250,0,0,0,0,0,0,0,0,0,786,29,0,0,
0,0,113,169,0,0,0,0,0,0,0,0,0,0,0,0,207,645,110,0,
0,0,115,209,0,0,0,0,0,0,0,0,0,0,0,250,250,0,75,0,
0,0,28,0,0,0,0,0,0,0,0,0,0,0,0,0,0,0,73,0,
0,0,28,645,0,0,0,0,0,0,0,0,0,0,0,0,0,0,74,0,
0,0,115,0,0,0,0,0,0,0,0,0,0,0,0,0,0,252,75,0,
0,0,114,0,0,250,0,0,0,0,0,0,0,0,786,0,247,0,73,0,
0,0,0,109,0,0,786,0,0,0,0,0,0,0,0,247,0,70,0,0,
0,0,0,0,109,0,0,0,0,0,0,0,0,0,290,292,70,0,0,0,
0,0,0,0,0,153,155,108,154,153,108,108,108,153,155,154,0,0,0,0,
0,0,0,0,0,0,0,0,0,0,0,0,0,0,0,0,0,0,0,0
</data>
 </layer>
 <layer id="3" name="animated" width="20" height="15">
  <data encoding="csv">
0,0,0,0,0,0,0,0,0,0,0,0,0,0,0,0,0,0,0,0,
0,0,0,0,0,0,0,0,0,0,0,0,0,0,0,0,0,0,0,0,
0,0,0,0,0,0,0,0,0,0,0,0,0,0,0,0,0,0,0,0,
0,0,0,0,0,0,648,0,0,0,0,0,0,0,0,0,0,0,0,0,
0,0,0,0,0,648,648,0,0,0,0,0,0,0,0,0,0,0,0,0,
0,0,0,648,0,0,0,0,0,0,0,0,0,0,0,0,648,0,0,0,
0,0,0,661,0,0,0,0,0,0,0,0,0,0,0,648,648,0,0,0,
0,0,0,0,0,0,0,0,0,0,0,0,0,0,0,0,0,0,0,0,
0,0,0,0,0,0,0,0,0,0,0,0,0,0,0,0,0,0,0,0,
0,0,0,0,0,0,0,0,0,0,0,0,0,0,0,0,0,661,0,0,
0,0,0,0,0,648,0,0,0,0,0,0,0,0,0,0,648,0,0,0,
0,0,0,0,0,0,0,0,0,0,0,0,0,0,0,648,0,0,0,0,
0,0,0,0,0,0,0,0,0,0,0,0,0,0,648,648,0,0,0,0,
0,0,0,0,0,0,0,0,0,0,0,0,0,0,0,0,0,0,0,0,
0,0,0,0,0,0,0,0,0,0,0,0,0,0,0,0,0,0,0,0
</data>
 </layer>
 <objectgroup id="4" name="objects">
  <object id="4" name="pickup" x="48" y="144" width="16" height="16">
   <properties>
    <property name="pickup_type" value="heart"/>
   </properties>
  </object>
  <object id="5" name="pickup" x="272" y="96" width="16" height="16">
   <properties>
    <property name="pickup_type" value="heart"/>
   </properties>
  </object>
  <object id="6" name="enemy" x="128" y="160" width="16" height="16">
   <properties>
    <property name="blocks" type="int" value="4"/>
    <property name="enemy_movement" value="horizontal"/>
    <property name="enemy_type" value="slime"/>
   </properties>
  </object>
  <object id="7" name="enemy" x="224" y="112" width="16" height="16">
   <properties>
    <property name="blocks" type="int" value="2"/>
    <property name="enemy_movement" value="vertical"/>
    <property name="enemy_type" value="slime"/>
   </properties>
  </object>
  <object id="8" name="enemy" x="96" y="96" width="16" height="16">
   <properties>
    <property name="blocks" type="int" value="3"/>
    <property name="enemy_movement" value="vertical"/>
    <property name="enemy_type" value="slime"/>
   </properties>
  </object>
  <object id="9" name="player" x="160" y="192" width="16" height="16"/>
  <object id="10" name="boss" x="152" y="72" width="32" height="32"/>
  <object id="11" name="pot" x="64" y="80" width="16" height="16"/>
  <object id="12" name="pot" x="48" y="112" width="16" height="16"/>
  <object id="13" name="pot" x="272" y="128" width="16" height="16"/>
  <object id="14" name="pot" x="208" y="192" width="16" height="16"/>
  <object id="15" name="pot" x="80" y="192" width="16" height="16"/>
 </objectgroup>
</map>
