<?xml version="1.0" encoding="UTF-8"?>
<map version="1.10" tiledversion="1.11.2" orientation="orthogonal" renderorder="right-down" width="20" height="15" tilewidth="16" tileheight="16" infinite="0" nextlayerid="5" nextobjectid="9">
 <tileset firstgid="1" source="../tsx/tileset_main.tsx"/>
 <tileset firstgid="641" source="../tsx/tileset_props.tsx"/>
 <tileset firstgid="793" source="../tsx/tileset_props_animated.tsx"/>
 <layer id="1" name="background" width="20" height="15">
  <data encoding="csv">
147,147,147,147,147,147,147,147,147,147,147,147,147,147,147,147,147,147,147,147,
147,147,147,147,147,147,147,147,147,147,147,147,147,147,147,147,147,147,147,147,
147,147,147,147,147,548,147,147,438,147,147,147,147,147,427,147,147,147,147,147,
147,147,147,147,147,147,489,11,11,11,11,11,11,12,147,147,147,147,147,147,
147,147,147,147,147,147,49,69,69,69,69,69,493,92,147,147,147,147,147,147,
147,147,147,147,147,147,49,69,493,69,69,69,69,92,147,147,147,147,147,147,
147,147,147,147,147,147,529,69,69,69,69,69,69,92,147,147,147,147,147,147,
147,147,147,147,147,147,49,69,69,69,69,69,69,572,147,147,147,147,147,147,
147,147,147,147,147,147,129,130,610,130,130,130,130,612,147,147,147,147,147,147,
147,147,147,147,147,507,147,147,147,147,147,147,147,147,550,147,147,147,147,147,
147,147,147,147,147,147,147,147,147,147,147,147,147,147,147,147,147,147,147,147,
147,147,147,147,147,147,147,147,147,147,147,147,147,147,147,147,147,147,147,147,
147,147,147,147,147,147,147,147,147,147,147,147,147,147,147,147,147,147,147,147,
147,147,147,147,147,147,147,147,147,147,147,147,147,147,147,147,147,147,147,147,
147,147,147,147,147,147,147,147,147,147,147,147,147,147,147,147,147,147,147,147
</data>
 </layer>
 <layer id="2" name="colliders" width="20" height="15">
  <data encoding="csv">
0,0,0,0,0,0,0,0,0,0,0,0,0,0,0,0,0,0,0,0,
0,0,0,0,0,0,0,0,147,0,0,0,0,0,0,0,0,0,0,0,
0,0,0,0,0,0,433,430,0,434,430,430,434,432,0,0,0,0,0,0,
0,0,0,0,0,428,0,682,0,0,0,0,653,654,474,0,0,0,0,0,
0,0,0,0,0,428,0,0,0,0,0,0,0,0,510,0,0,0,0,0,
0,0,0,0,0,428,0,0,0,698,0,0,0,0,474,0,0,0,0,0,
0,0,0,0,0,513,0,0,0,0,0,0,0,0,472,0,0,0,0,0,
0,0,0,0,0,514,661,0,0,0,0,90,0,0,510,0,0,0,0,0,
0,0,0,0,0,428,660,662,0,0,0,0,0,0,510,0,0,0,0,0,
0,0,0,0,0,0,508,508,554,554,508,508,508,508,0,0,0,0,0,0,
0,0,0,0,0,0,0,0,0,0,0,0,0,0,0,0,0,0,0,0,
0,0,0,0,0,0,0,0,0,0,0,0,0,0,0,0,0,0,0,0,
0,0,0,0,0,0,0,0,0,0,0,0,0,0,0,0,0,0,0,0,
0,0,0,0,0,0,0,0,0,0,0,0,0,0,0,0,0,0,0,0,
0,0,0,0,0,0,0,0,0,0,0,0,0,0,0,0,0,0,0,0
</data>
 </layer>
 <layer id="3" name="animated" width="20" height="15">
  <data encoding="csv">
0,0,0,0,0,0,0,0,0,0,0,0,0,0,0,0,0,0,0,0,
0,0,0,0,0,0,0,0,0,0,0,0,0,0,0,0,0,0,0,0,
0,0,0,0,0,0,0,0,0,0,0,0,0,0,0,0,0,0,0,0,
0,0,0,0,0,0,0,0,0,0,0,0,0,0,0,0,0,0,0,0,
0,0,0,0,0,0,0,0,0,0,0,0,0,0,0,0,0,0,0,0,
0,0,0,0,0,0,0,0,0,0,0,0,0,0,0,0,0,0,0,0,
0,0,0,0,0,0,0,0,0,0,0,0,0,0,0,0,0,0,0,0,
0,0,0,0,0,0,0,0,0,0,0,848,0,0,0,0,0,0,0,0,
0,0,0,0,0,0,0,0,0,0,0,0,0,0,0,0,0,0,0,0,
0,0,0,0,0,0,0,0,0,0,0,0,0,0,0,0,0,0,0,0,
0,0,0,0,0,0,0,0,0,0,0,0,0,0,0,0,0,0,0,0,
0,0,0,0,0,0,0,0,0,0,0,0,0,0,0,0,0,0,0,0,
0,0,0,0,0,0,0,0,0,0,0,0,0,0,0,0,0,0,0,0,
0,0,0,0,0,0,0,0,0,0,0,0,0,0,0,0,0,0,0,0,
0,0,0,0,0,0,0,0,0,0,0,0,0,0,0,0,0,0,0,0
</data>
 </layer>
 <objectgroup id="4" name="objects">
  <object id="1" name="info" x="24" y="24">
   <properties>
    <property name="music" value="adventure_begin"/>
   </properties>
   <point/>
  </object>
  <object id="2" name="door" x="128" y="40" width="16" height="8">
   <properties>
    <property name="locked" type="bool" value="false"/>
   </properties>
  </object>
  <object id="3" name="pickup" x="96" y="48" width="16" height="16">
   <properties>
    <property name="pickup_type" value="coin"/>
   </properties>
  </object>
  <object id="4" name="pickup" x="176" y="128" width="16" height="16">
   <properties>
    <property name="pickup_type" value="coin"/>
   </properties>
  </object>
  <object id="5" name="player" x="192" y="112" width="16" height="16"/>
  <object id="7" name="pot" x="112" y="112" width="16" height="16"/>
  <object id="8" name="pot" x="176" y="48" width="16" height="16"/>
 </objectgroup>
</map>
