<?xml version="1.0" encoding="UTF-8"?>
<map version="1.10" tiledversion="1.11.2" orientation="orthogonal" renderorder="right-down" width="20" height="15" tilewidth="16" tileheight="16" infinite="0" nextlayerid="5" nextobjectid="5">
 <tileset firstgid="1" source="../tsx/tileset_main.tsx"/>
 <tileset firstgid="641" source="../tsx/tileset_props.tsx"/>
 <tileset firstgid="793" source="../tsx/tileset_props_animated.tsx"/>
 <layer id="1" name="background" width="20" height="15">
  <data encoding="csv">
147,147,147,147,147,147,147,147,147,147,147,147,147,147,147,147,147,147,147,147,
147,147,147,147,147,147,147,147,147,147,147,147,147,147,147,147,147,147,147,147,
147,147,147,147,147,147,147,147,147,147,147,147,147,147,147,147,147,147,147,147,
147,147,147,147,147,147,147,147,147,147,147,147,147,147,147,147,147,147,147,147,
147,148,147,147,147,147,147,147,147,147,147,147,147,147,147,147,147,147,27,147,
147,147,169,171,171,171,171,171,171,171,171,171,171,171,171,171,171,172,147,147,
147,147,209,250,250,250,250,250,250,250,250,250,250,250,250,250,250,252,147,147,
147,147,641,250,250,250,250,250,250,250,250,250,250,250,250,250,250,252,147,147,
147,147,289,290,290,290,290,290,290,290,290,290,290,290,290,290,290,292,147,147,
147,107,147,147,147,147,147,147,147,147,147,147,147,147,147,147,147,147,150,147,
147,147,147,147,147,147,147,147,147,147,147,147,147,147,147,147,147,147,147,147,
147,147,147,147,147,147,147,147,147,147,147,147,147,147,147,147,147,147,147,147,
147,147,147,147,147,147,147,147,147,147,147,147,147,147,147,147,147,147,147,147,
147,147,147,147,147,147,147,147,147,147,147,147,147,147,147,147,147,147,147,147,
147,147,147,147,147,147,147,147,147,147,147,147,147,147,147,147,147,147,147,147
</data>
 </layer>
 <layer id="2" name="colliders" width="20" height="15">
  <data encoding="csv">
0,0,0,0,0,0,0,0,0,0,0,0,0,0,0,0,0,0,0,0,
0,0,0,0,0,0,0,0,0,0,0,0,0,0,0,0,0,0,0,0,
0,0,0,0,0,0,0,0,0,0,0,0,0,0,0,0,0,0,0,0,
0,0,0,0,0,0,0,0,0,0,0,0,0,0,0,0,0,0,0,0,
0,0,30,30,30,30,30,30,30,30,30,30,30,30,30,30,30,30,0,0,
0,28,0,0,0,0,0,0,0,0,0,0,0,0,0,0,171,0,110,0,
0,28,209,0,0,0,0,698,0,0,0,0,0,0,0,0,0,0,110,0,
0,28,0,0,0,0,0,0,0,0,0,0,0,0,0,0,0,0,110,0,
0,28,0,0,0,0,0,0,0,0,0,0,0,0,0,0,0,0,110,0,
0,0,108,108,108,108,108,108,108,108,108,108,108,108,108,108,108,108,0,0,
0,0,0,0,0,0,0,0,0,0,0,0,0,0,0,0,0,0,0,0,
0,0,0,0,0,0,0,0,0,0,0,0,0,0,0,0,0,0,0,0,
0,0,0,0,0,0,0,0,0,0,0,0,0,0,0,0,0,0,0,0,
0,0,0,0,0,0,0,0,0,0,0,0,0,0,0,0,0,0,0,0,
0,0,0,0,0,0,0,0,0,0,0,0,0,0,0,0,0,0,0,0
</data>
 </layer>
 <layer id="3" name="animated" width="20" height="15">
  <data encoding="csv">
0,0,0,0,0,0,0,0,0,0,0,0,0,0,0,0,0,0,0,0,
0,0,0,0,0,0,0,0,0,0,0,0,0,0,0,0,0,0,0,0,
0,0,0,0,0,0,0,0,0,0,0,0,0,0,0,0,0,0,0,0,
0,0,0,0,0,0,0,0,0,0,0,0,0,0,0,0,0,0,0,0,
0,0,0,793,0,0,793,0,0,793,0,0,793,0,0,793,811,0,0,0,
0,0,0,0,0,0,0,0,0,0,0,0,0,0,0,0,822,0,0,0,
0,0,813,0,0,0,0,0,0,0,0,0,0,0,0,0,0,0,0,0,
0,0,0,0,0,0,0,0,0,0,0,0,0,0,0,0,0,0,0,0,
0,0,0,0,0,0,0,0,0,0,0,0,0,0,0,0,0,0,0,0,
0,0,0,815,0,0,815,0,0,815,0,0,815,0,0,815,0,0,0,0,
0,0,0,0,0,0,0,0,0,0,0,0,0,0,0,0,0,0,0,0,
0,0,0,0,0,0,0,0,0,0,0,0,0,0,0,0,0,0,0,0,
0,0,0,0,0,0,0,0,0,0,0,0,0,0,0,0,0,0,0,0,
0,0,0,0,0,0,0,0,0,0,0,0,0,0,0,0,0,0,0,0,
0,0,0,0,0,0,0,0,0,0,0,0,0,0,0,0,0,0,0,0
</data>
 </layer>
 <objectgroup id="4" name="objects">
  <object id="1" name="player" x="272" y="112" width="16" height="16"/>
  <object id="2" name="pickup" x="272" y="80" width="16" height="16">
   <properties>
    <property name="pickup_type" value="heart"/>
   </properties>
  </object>
  <object id="3" name="door" x="32" y="112" width="16" height="16">
   <properties>
    <property name="locked" type="bool" value="false"/>
   </properties>
  </object>
  <object id="4" name="info" x="24" y="24">
   <properties>
    <property name="music" value="final_area"/>
   </properties>
   <point/>
  </object>
 </objectgroup>
</map>
